X:16058
T:Strike Home Ye Britons. JB.46
M:4/4
L:1/8
Q:150
S:James Biggins MS, Leeds, 1779.
R:Air
O:England
A:Yorkshire
Z:vmp.Nick Barber & Chris Partington
K:G
g|egdg BG2g|egdg aA2g|egdg BGcA|dBcA BG2:|!
|:d|BdAd BG2A|BcdB cA2d|BdAd BdGg|fedc BG2:|]
